X: 1
T:WINNICK'S FAVORITE -- JIG.
B:Coles pg. 82.3
M:2/4
Z:John Walsh <walsh:mat:h.ubc.ca>
L:1/16
Q:1/4 =50
Z: Contributed 20020529094117 by John B. Walsh walsh:mat:h.ubc.ca
K:D
(uABcd) | vf2d2 f<d zuf|z2 df e4 | "4"e2c2 "4"e<c z2 "4"ue2 | z2 vc"4"e d2:|
|:uD2 | vDFAc e<f z (vd| e)(vcd)B AFED | A,CEF GB2G|"4"AFGE D2:|

